src/main/webapp/img/noun_40514_cc.svg

<?xml version="1.0" encoding="UTF-8" standalone="no"?>
<svg
   xmlns:dc="http://purl.org/dc/elements/1.1/"
   xmlns:cc="http://creativecommons.org/ns#"
   xmlns:rdf="http://www.w3.org/1999/02/22-rdf-syntax-ns#"
   xmlns:svg="http://www.w3.org/2000/svg"
   xmlns="http://www.w3.org/2000/svg"
   xmlns:sodipodi="http://sodipodi.sourceforge.net/DTD/sodipodi-0.dtd"
   xmlns:inkscape="http://www.inkscape.org/namespaces/inkscape"
   version="1.1"
   x="0px"
   y="0px"
   viewBox="0 0 90 90"
   enable-background="new 0 0 90 90"
   xml:space="preserve"
   id="svg20"
   inkscape:version="0.91 r13725"
   sodipodi:docname="noun_40514_cc.svg"
   width="90"
   height="90"><metadata
     id="metadata42"><rdf:RDF><cc:Work
         rdf:about=""><dc:format>image/svg+xml</dc:format><dc:type
           rdf:resource="http://purl.org/dc/dcmitype/StillImage" /><dc:title></dc:title></cc:Work></rdf:RDF></metadata><defs
     id="defs40" /><sodipodi:namedview
     pagecolor="#ffffff"
     bordercolor="#666666"
     borderopacity="1"
     objecttolerance="10"
     gridtolerance="10"
     guidetolerance="10"
     inkscape:pageopacity="0"
     inkscape:pageshadow="2"
     inkscape:window-width="640"
     inkscape:window-height="480"
     id="namedview38"
     showgrid="false"
     inkscape:zoom="2.0977778"
     inkscape:cx="45"
     inkscape:cy="56.250001"
     inkscape:window-x="0"
     inkscape:window-y="23"
     inkscape:window-maximized="0"
     inkscape:current-layer="svg20" /><g
     id="g22"
     transform="translate(0.47669492,-0.09533898)"><path
       d="m 24.973,49.136 c 1.916,0 3.474,-1.559 3.474,-3.475 0,-1.917 -1.559,-3.476 -3.474,-3.476 -1.917,0 -3.476,1.559 -3.476,3.476 0.001,1.916 1.56,3.475 3.476,3.475 z m 0,-5.236 c 0.97,0 1.759,0.79 1.759,1.761 0,0.971 -0.79,1.759 -1.759,1.759 -0.971,0 -1.76,-0.788 -1.76,-1.759 0,-0.971 0.789,-1.761 1.76,-1.761 z"
       id="path24"
       inkscape:connector-curvature="0"
       style="fill:#000000" /><path
       d="m 28.619,71.869 0.26,0 c 0.365,2.172 2.253,3.834 4.527,3.834 2.274,0 4.163,-1.662 4.527,-3.834 0.472,-0.002 0.853,-0.385 0.853,-0.857 0,-0.472 -0.384,-0.857 -0.857,-0.857 l -0.026,0 c -0.44,-2.077 -2.288,-3.643 -4.496,-3.643 -2.208,0 -4.056,1.565 -4.496,3.643 l -0.292,0 c -0.474,0 -0.858,0.385 -0.858,0.857 0,0.474 0.385,0.857 0.858,0.857 z m 4.787,2.119 c -1.324,0 -2.439,-0.899 -2.775,-2.119 l 5.551,0 c -0.336,1.22 -1.452,2.119 -2.776,2.119 z m 0,-5.76 c 1.255,0 2.321,0.807 2.716,1.927 l -5.432,0 c 0.395,-1.121 1.461,-1.927 2.716,-1.927 z"
       id="path26"
       inkscape:connector-curvature="0"
       style="fill:#000000" /><path
       d="m 49.688,71.869 0.068,0 c 0.364,2.172 2.253,3.834 4.526,3.834 2.273,0 4.162,-1.662 4.527,-3.834 l 0.188,0 c 0.475,0 0.858,-0.383 0.858,-0.857 0,-0.473 -0.384,-0.857 -0.858,-0.857 l -0.22,0 c -0.44,-2.077 -2.287,-3.643 -4.495,-3.643 -2.207,0 -4.055,1.565 -4.495,3.643 l -0.1,0 c -0.474,0 -0.857,0.385 -0.857,0.857 0.001,0.474 0.385,0.857 0.858,0.857 z m 4.595,2.119 c -1.323,0 -2.439,-0.899 -2.774,-2.119 l 5.549,0 c -0.335,1.22 -1.451,2.119 -2.775,2.119 z m 0,-5.76 c 1.255,0 2.32,0.807 2.715,1.927 l -5.43,0 c 0.395,-1.121 1.461,-1.927 2.715,-1.927 z"
       id="path28"
       inkscape:connector-curvature="0"
       style="fill:#000000" /><path
       d="m 78.231,50.4 c -0.067,-0.088 -0.152,-0.156 -0.245,-0.211 l 0,-2.595 0,-4.512 0,-0.286 c 0,-0.288 -0.145,-0.557 -0.385,-0.715 -0.24,-0.159 -0.545,-0.187 -0.809,-0.074 l -5.639,2.4 c -0.317,0.134 -0.521,0.445 -0.521,0.789 0,0.344 0.205,0.654 0.521,0.788 l 5.117,2.177 0,1.903 -15.26,0 c -0.388,0 -0.729,0.262 -0.828,0.638 l -0.855,3.214 -10.809,4.479 -9.241,0 0,-25.301 c 0,-0.253 -0.112,-0.493 -0.305,-0.656 -0.193,-0.163 -0.448,-0.23 -0.698,-0.189 l -0.957,0.166 0,-6.719 c 0,-0.251 -0.11,-0.489 -0.301,-0.652 -0.19,-0.164 -0.441,-0.235 -0.69,-0.195 l -3.431,0.542 c -0.416,0.065 -0.723,0.425 -0.723,0.847 l 0,7.064 -15.948,2.75 c -0.412,0.071 -0.712,0.428 -0.712,0.845 l 0,21.498 -3.062,0 c -0.473,0 -0.857,0.384 -0.857,0.857 l 0,1.022 c 0,5.004 1.112,9.255 3.316,12.721 -0.099,0.071 -0.186,0.161 -0.25,0.272 -2.17,3.811 0.101,6.103 0.199,6.198 0.161,0.155 0.375,0.244 0.6,0.244 l 6.713,0 c 1.919,0.958 8.801,3.736 23.818,3.736 15.104,0 22.162,-2.802 24.097,-3.736 l 0.122,0 c 0.368,0 0.695,-0.234 0.812,-0.583 l 5.107,-15.098 0.021,0 0,-0.063 1.502,-4.438 c 0.088,-0.262 0.045,-0.55 -0.116,-0.774 -0.161,-0.226 -0.42,-0.358 -0.696,-0.358 l -0.403,0 1.944,-7.25 c 0.069,-0.258 0.015,-0.533 -0.148,-0.745 z m -4.55,-5.204 2.591,-1.104 0,2.205 -2.591,-1.101 z m -8.216,13.199 0.863,-3.185 3.704,0 -0.86,3.185 -3.707,0 z m -4.708,-3.185 3.794,0 -0.861,3.185 -3.781,0 0.848,-3.185 z m 6.035,-1.716 0.464,-1.715 3.703,0 -0.464,1.715 -3.703,0 z m 5.942,-1.715 3.623,0 c 0.016,0.033 0.031,0.064 0.051,0.094 l -0.435,1.621 -3.702,0 0.463,-1.715 z m -7.255,0 -0.464,1.715 -3.802,0 0.457,-1.715 3.809,0 z m -6.708,4.223 -0.582,2.189 c -0.019,0.067 -0.025,0.135 -0.026,0.203 l -5.167,0 5.775,-2.392 z m -21.209,-8.387 -2.695,0 0,-7.105 2.695,0 0,7.105 z m -1.96,-20.917 0,2.022 -1.715,0.245 0,-1.997 1.715,-0.27 z m -1.716,3.999 1.715,-0.244 0,2.256 -1.715,0.296 0,-2.308 z m -16.659,6.921 20.335,-3.506 0,4.683 -3.553,0 c -0.474,0 -0.857,0.384 -0.857,0.857 l 0,8.82 c 0,0.474 0.384,0.857 0.857,0.857 l 3.553,0 0,9.064 -6.125,0 0,-18.741 c 0,-0.474 -0.384,-0.857 -0.857,-0.857 l -11.271,0 c -0.473,0 -0.857,0.384 -0.857,0.857 l 0,18.742 -1.225,0 0,-20.776 z m 12.495,20.777 -9.556,0 0,-17.885 9.556,0 0,17.885 z m -16.415,1.714 35.398,0 0.022,0.055 0.13,-0.055 26.785,0 -0.746,2.205 -61.515,0 c -0.044,-0.665 -0.074,-1.341 -0.074,-2.04 l 0,-0.165 z m 2.654,14.361 c 1.017,1.302 2.2,2.481 3.569,3.524 l -3.661,0 C 15.557,77.51 15.05,76.312 15.961,74.47 Z m 30.027,7.26 c -9.024,0 -15.03,-1.035 -18.704,-2.021 l 37.597,0 c -3.742,0.988 -9.823,2.021 -18.893,2.021 z m 23.604,-3.736 -44.893,0 -2.096,0 C 17.348,74.896 14.37,70.301 13.549,64.029 l 60.768,0 -4.725,13.965 z m 1.354,-19.599 0.861,-3.185 3.706,0 -0.783,2.919 c -0.024,0.089 -0.029,0.179 -0.024,0.266 l -3.76,0 z"
       id="path30"
       inkscape:connector-curvature="0"
       style="fill:#000000" /><path
       d="m 24.388,17.098 c 0.188,0 0.377,-0.012 0.567,-0.036 1.216,1.93 3.295,3.125 5.592,3.188 0.363,1.81 1.965,3.177 3.88,3.177 2.062,0 3.76,-1.585 3.942,-3.6 1.665,-0.867 2.749,-2.613 2.749,-4.514 0,-2.518 -1.839,-4.63 -4.275,-5.021 -1.165,-2.286 -3.508,-3.737 -6.103,-3.737 -1.61,0 -3.136,0.554 -4.362,1.57 -0.62,-0.291 -1.297,-0.442 -1.99,-0.442 -2.596,0 -4.708,2.112 -4.708,4.708 0,2.596 2.112,4.707 4.708,4.707 z m 0,-7.702 c 0.585,0 1.152,0.17 1.641,0.492 0.34,0.225 0.791,0.178 1.079,-0.11 0.971,-0.974 2.261,-1.509 3.633,-1.509 2.075,0 3.935,1.237 4.738,3.153 0.127,0.303 0.416,0.506 0.743,0.524 1.784,0.101 3.182,1.579 3.182,3.366 0,1.394 -0.879,2.661 -2.188,3.154 -0.352,0.133 -0.576,0.479 -0.553,0.855 0,0.002 0.003,0.05 0.003,0.052 0.002,0.032 0.005,0.062 0.005,0.095 0,1.237 -1.006,2.244 -2.243,2.244 -1.236,0 -2.243,-1.006 -2.242,-2.248 10e-4,-0.013 0.003,-0.074 0.004,-0.087 0.003,-0.244 -0.098,-0.479 -0.278,-0.644 -0.159,-0.146 -0.366,-0.226 -0.579,-0.226 -0.029,0 -0.058,10e-4 -0.086,0.004 -0.166,0.017 -0.333,0.026 -0.504,0.026 -1.943,0 -3.698,-1.082 -4.579,-2.823 -0.184,-0.363 -0.598,-0.548 -0.989,-0.441 -1.998,0.542 -3.777,-0.98 -3.777,-2.884 -0.003,-1.65 1.339,-2.993 2.99,-2.993 z"
       id="path32"
       inkscape:connector-curvature="0"
       style="fill:#000000" /></g></svg>

<?xml version="1.0" encoding="UTF-8" standalone="no"?>
<svg
   xmlns:dc="http://purl.org/dc/elements/1.1/"
   xmlns:cc="http://creativecommons.org/ns#"
   xmlns:rdf="http://www.w3.org/1999/02/22-rdf-syntax-ns#"
   xmlns:svg="http://www.w3.org/2000/svg"
   xmlns="http://www.w3.org/2000/svg"
   xmlns:sodipodi="http://sodipodi.sourceforge.net/DTD/sodipodi-0.dtd"
   xmlns:inkscape="http://www.inkscape.org/namespaces/inkscape"
   version="1.1"
   x="0px"
   y="0px"
   viewBox="0 0 90 112.5"
   enable-background="new 0 0 90 90"
   xml:space="preserve"
   id="svg20"
   inkscape:version="0.91 r13725"
   sodipodi:docname="noun_40514_cc.svg"><metadata
     id="metadata42"><rdf:RDF><cc:Work
         rdf:about=""><dc:format>image/svg+xml</dc:format><dc:type
           rdf:resource="http://purl.org/dc/dcmitype/StillImage" /></cc:Work></rdf:RDF></metadata><defs
     id="defs40" /><sodipodi:namedview
     pagecolor="#ffffff"
     bordercolor="#666666"
     borderopacity="1"
     objecttolerance="10"
     gridtolerance="10"
     guidetolerance="10"
     inkscape:pageopacity="0"
     inkscape:pageshadow="2"
     inkscape:window-width="640"
     inkscape:window-height="480"
     id="namedview38"
     showgrid="false"
     inkscape:zoom="2.0977778"
     inkscape:cx="45"
     inkscape:cy="56.25"
     inkscape:window-x="0"
     inkscape:window-y="0"
     inkscape:window-maximized="0"
     inkscape:current-layer="svg20" /><g
     id="g22"><path
       fill="#000000"
       d="M24.973,49.136c1.916,0,3.474-1.559,3.474-3.475c0-1.917-1.559-3.476-3.474-3.476   c-1.917,0-3.476,1.559-3.476,3.476C21.498,47.577,23.057,49.136,24.973,49.136z M24.973,43.9c0.97,0,1.759,0.79,1.759,1.761   s-0.79,1.759-1.759,1.759c-0.971,0-1.76-0.788-1.76-1.759S24.002,43.9,24.973,43.9z"
       id="path24" /><path
       fill="#000000"
       d="M28.619,71.869h0.26c0.365,2.172,2.253,3.834,4.527,3.834c2.274,0,4.163-1.662,4.527-3.834   c0.472-0.002,0.853-0.385,0.853-0.857s-0.384-0.857-0.857-0.857h-0.026c-0.44-2.077-2.288-3.643-4.496-3.643   s-4.056,1.565-4.496,3.643h-0.292c-0.474,0-0.858,0.385-0.858,0.857C27.761,71.486,28.146,71.869,28.619,71.869z M33.406,73.988   c-1.324,0-2.439-0.899-2.775-2.119h5.551C35.846,73.089,34.73,73.988,33.406,73.988z M33.406,68.228   c1.255,0,2.321,0.807,2.716,1.927H30.69C31.085,69.034,32.151,68.228,33.406,68.228z"
       id="path26" /><path
       fill="#000000"
       d="M49.688,71.869h0.068c0.364,2.172,2.253,3.834,4.526,3.834s4.162-1.662,4.527-3.834h0.188   c0.475,0,0.858-0.383,0.858-0.857c0-0.473-0.384-0.857-0.858-0.857h-0.22c-0.44-2.077-2.287-3.643-4.495-3.643   c-2.207,0-4.055,1.565-4.495,3.643h-0.1c-0.474,0-0.857,0.385-0.857,0.857C48.831,71.486,49.215,71.869,49.688,71.869z    M54.283,73.988c-1.323,0-2.439-0.899-2.774-2.119h5.549C56.723,73.089,55.607,73.988,54.283,73.988z M54.283,68.228   c1.255,0,2.32,0.807,2.715,1.927h-5.43C51.963,69.034,53.029,68.228,54.283,68.228z"
       id="path28" /><path
       fill="#000000"
       d="M78.231,50.4c-0.067-0.088-0.152-0.156-0.245-0.211v-2.595v-4.512v-0.286c0-0.288-0.145-0.557-0.385-0.715   c-0.24-0.159-0.545-0.187-0.809-0.074l-5.639,2.4c-0.317,0.134-0.521,0.445-0.521,0.789s0.205,0.654,0.521,0.788l5.117,2.177v1.903   H61.01c-0.388,0-0.729,0.262-0.828,0.638l-0.855,3.214l-10.809,4.479h-9.241V33.094c0-0.253-0.112-0.493-0.305-0.656   c-0.193-0.163-0.448-0.23-0.698-0.189l-0.957,0.166v-6.719c0-0.251-0.11-0.489-0.301-0.652c-0.19-0.164-0.441-0.235-0.69-0.195   l-3.431,0.542c-0.416,0.065-0.723,0.425-0.723,0.847v7.064l-15.948,2.75c-0.412,0.071-0.712,0.428-0.712,0.845v21.498h-3.062   c-0.473,0-0.857,0.384-0.857,0.857v1.022c0,5.004,1.112,9.255,3.316,12.721c-0.099,0.071-0.186,0.161-0.25,0.272   c-2.17,3.811,0.101,6.103,0.199,6.198c0.161,0.155,0.375,0.244,0.6,0.244h6.713c1.919,0.958,8.801,3.736,23.818,3.736   c15.104,0,22.162-2.802,24.097-3.736h0.122c0.368,0,0.695-0.234,0.812-0.583l5.107-15.098h0.021v-0.063l1.502-4.438   c0.088-0.262,0.045-0.55-0.116-0.774c-0.161-0.226-0.42-0.358-0.696-0.358h-0.403l1.944-7.25   C78.448,50.887,78.394,50.612,78.231,50.4z M73.681,45.196l2.591-1.104v2.205L73.681,45.196z M65.465,58.395l0.863-3.185h3.704   l-0.86,3.185H65.465z M60.757,55.21h3.794l-0.861,3.185h-3.781L60.757,55.21z M66.792,53.494l0.464-1.715h3.703l-0.464,1.715   H66.792z M72.734,51.779h3.623c0.016,0.033,0.031,0.064,0.051,0.094l-0.435,1.621h-3.702L72.734,51.779z M65.479,51.779   l-0.464,1.715h-3.802l0.457-1.715H65.479z M58.771,56.002l-0.582,2.189c-0.019,0.067-0.025,0.135-0.026,0.203h-5.167L58.771,56.002   z M37.562,47.615h-2.695V40.51h2.695V47.615z M35.602,26.698v2.022l-1.715,0.245v-1.997L35.602,26.698z M33.886,30.697l1.715-0.244   v2.256l-1.715,0.296V30.697z M17.227,37.618l20.335-3.506v4.683h-3.553c-0.474,0-0.857,0.384-0.857,0.857v8.82   c0,0.474,0.384,0.857,0.857,0.857h3.553v9.064h-6.125V39.652c0-0.474-0.384-0.857-0.857-0.857H19.309   c-0.473,0-0.857,0.384-0.857,0.857v18.742h-1.225V37.618z M29.722,58.395h-9.556V40.51h9.556V58.395z M13.307,60.109h35.398   l0.022,0.055l0.13-0.055h26.785l-0.746,2.205H13.381c-0.044-0.665-0.074-1.341-0.074-2.04V60.109z M15.961,74.47   c1.017,1.302,2.2,2.481,3.569,3.524h-3.661C15.557,77.51,15.05,76.312,15.961,74.47z M45.988,81.73   c-9.024,0-15.03-1.035-18.704-2.021h37.597C61.139,80.697,55.058,81.73,45.988,81.73z M69.592,77.994H24.699h-2.096   c-5.255-3.098-8.233-7.693-9.054-13.965h60.768L69.592,77.994z M70.946,58.395l0.861-3.185h3.706l-0.783,2.919   c-0.024,0.089-0.029,0.179-0.024,0.266H70.946z"
       id="path30" /><path
       fill="#000000"
       d="M24.388,17.098c0.188,0,0.377-0.012,0.567-0.036c1.216,1.93,3.295,3.125,5.592,3.188   c0.363,1.81,1.965,3.177,3.88,3.177c2.062,0,3.76-1.585,3.942-3.6c1.665-0.867,2.749-2.613,2.749-4.514   c0-2.518-1.839-4.63-4.275-5.021c-1.165-2.286-3.508-3.737-6.103-3.737c-1.61,0-3.136,0.554-4.362,1.57   c-0.62-0.291-1.297-0.442-1.99-0.442c-2.596,0-4.708,2.112-4.708,4.708S21.792,17.098,24.388,17.098z M24.388,9.396   c0.585,0,1.152,0.17,1.641,0.492c0.34,0.225,0.791,0.178,1.079-0.11c0.971-0.974,2.261-1.509,3.633-1.509   c2.075,0,3.935,1.237,4.738,3.153c0.127,0.303,0.416,0.506,0.743,0.524c1.784,0.101,3.182,1.579,3.182,3.366   c0,1.394-0.879,2.661-2.188,3.154c-0.352,0.133-0.576,0.479-0.553,0.855c0,0.002,0.003,0.05,0.003,0.052   c0.002,0.032,0.005,0.062,0.005,0.095c0,1.237-1.006,2.244-2.243,2.244c-1.236,0-2.243-1.006-2.242-2.248   c0.001-0.013,0.003-0.074,0.004-0.087c0.003-0.244-0.098-0.479-0.278-0.644c-0.159-0.146-0.366-0.226-0.579-0.226   c-0.029,0-0.058,0.001-0.086,0.004c-0.166,0.017-0.333,0.026-0.504,0.026c-1.943,0-3.698-1.082-4.579-2.823   c-0.184-0.363-0.598-0.548-0.989-0.441c-1.998,0.542-3.777-0.98-3.777-2.884C21.395,10.739,22.737,9.396,24.388,9.396z"
       id="path32" /></g></svg>
